package/converter/svg/duotone/circle-waveform-lines.svg

<svg xmlns="http://www.w3.org/2000/svg" viewBox="0 0 512 512"><!-- Font Awesome Pro 6.0.0-alpha2 by @fontawesome - https://fontawesome.com License - https://fontawesome.com/license (Commercial License) --><defs><style>.fa-secondary{opacity:.4}</style></defs><path d="M256 16C123.451 16 16 123.451 16 256S123.451 496 256 496S496 388.549 496 256S388.549 16 256 16ZM160 336C160 344.836 152.836 352 144 352S128 344.836 128 336V176C128 167.162 135.164 160 144 160S160 167.162 160 176V336ZM224 296C224 304.836 216.836 312 208 312S192 304.836 192 296V216C192 207.162 199.164 200 208 200S224 207.162 224 216V296ZM288 360C288 368.836 280.836 376 272 376S256 368.836 256 360V152C256 143.162 263.164 136 272 136S288 143.162 288 152V360ZM352 312C352 320.836 344.836 328 336 328S320 320.836 320 312V200C320 191.162 327.164 184 336 184S352 191.162 352 200V312ZM416 272C416 280.836 408.836 288 400 288S384 280.836 384 272V240C384 231.162 391.164 224 400 224S416 231.162 416 240V272Z" class="fa-secondary"/><path d="M144 160C135.164 160 128 167.162 128 176V336C128 344.836 135.164 352 144 352S160 344.836 160 336V176C160 167.162 152.836 160 144 160ZM272 136C263.164 136 256 143.162 256 152V360C256 368.836 263.164 376 272 376S288 368.836 288 360V152C288 143.162 280.836 136 272 136ZM208 200C199.164 200 192 207.162 192 216V296C192 304.836 199.164 312 208 312S224 304.836 224 296V216C224 207.162 216.836 200 208 200ZM400 224C391.164 224 384 231.162 384 240V272C384 280.836 391.164 288 400 288S416 280.836 416 272V240C416 231.162 408.836 224 400 224ZM336 184C327.164 184 320 191.162 320 200V312C320 320.836 327.164 328 336 328S352 320.836 352 312V200C352 191.162 344.836 184 336 184Z" class="fa-primary"/></svg>

<svg xmlns="http://www.w3.org/2000/svg" viewBox="0 0 512 512"><!--! Font Awesome Pro 6.6.0 by @fontawesome - https://fontawesome.com License - https://fontawesome.com/license (Commercial License) Copyright 2024 Fonticons, Inc. --><defs><style>.fa-secondary{opacity:.4}</style></defs><path class="fa-secondary" d="M0 256a256 256 0 1 0 512 0A256 256 0 1 0 0 256zm128-80c0-8.8 7.2-16 16-16s16 7.2 16 16l0 160c0 8.8-7.2 16-16 16s-16-7.2-16-16l0-160zm64 40c0-8.8 7.2-16 16-16s16 7.2 16 16l0 80c0 8.8-7.2 16-16 16s-16-7.2-16-16l0-80zm64-72c0-8.8 7.2-16 16-16s16 7.2 16 16l0 224c0 8.8-7.2 16-16 16s-16-7.2-16-16l0-224zm64 56c0-8.8 7.2-16 16-16s16 7.2 16 16l0 112c0 8.8-7.2 16-16 16s-16-7.2-16-16l0-112zm64 40c0-8.8 7.2-16 16-16s16 7.2 16 16l0 32c0 8.8-7.2 16-16 16s-16-7.2-16-16l0-32z"/><path class="fa-primary" d="M272 128c8.8 0 16 7.2 16 16l0 224c0 8.8-7.2 16-16 16s-16-7.2-16-16l0-224c0-8.8 7.2-16 16-16zM144 160c8.8 0 16 7.2 16 16l0 160c0 8.8-7.2 16-16 16s-16-7.2-16-16l0-160c0-8.8 7.2-16 16-16zm192 24c8.8 0 16 7.2 16 16l0 112c0 8.8-7.2 16-16 16s-16-7.2-16-16l0-112c0-8.8 7.2-16 16-16zM208 200c8.8 0 16 7.2 16 16l0 80c0 8.8-7.2 16-16 16s-16-7.2-16-16l0-80c0-8.8 7.2-16 16-16zm192 24c8.8 0 16 7.2 16 16l0 32c0 8.8-7.2 16-16 16s-16-7.2-16-16l0-32c0-8.8 7.2-16 16-16z"/></svg>
